src/img/bg--magnifier.svg

<svg width="395" height="395" viewBox="0 0 395 395" fill="none" xmlns="http://www.w3.org/2000/svg">
<path d="M112.459 253.699V225.792H84.7808V84.6091H112.649V56.3893H140.982V28.0351H169.187V0H310.354V27.884H338.58V56.2437H366.762V84.4692H395V225.736H366.969V253.866H338.759V282.221H310.516V310.289H169.321V282.232H141.106V253.676H112.426L112.454 253.699H112.459ZM310.169 225.954H338.726V197.376H366.65V112.745H338.692V84.4804H310.348V56.2885H282.149V28.175H197.38V56.4173H169.176V84.5811H140.938V112.918H112.924V197.595H141.156V225.815H169.349V254.169H197.587V282.047H282.205V253.917H310.175V225.954H310.169Z" fill="#DDDDDD"/>
<path d="M112.431 253.677V282.216H140.904V310.38H112.845V338.706H84.6801V366.926H56.3136V395H28.1932V367.049H0V338.796H27.9861V310.548H56.2856V282.244H84.6353V253.7C94.0964 253.7 103.278 253.7 112.459 253.7L112.426 253.677H112.431Z" fill="#DDDDDD"/>
<path d="M253.788 84.686V140.795H197.716V84.686H253.788Z" fill="#DDDDDD"/>
<path d="M338.793 197.461H310.169V141.167H338.793V197.461Z" fill="#DDDDDD"/>
<path d="M282.278 225.946C282.278 235.298 282.278 244.645 282.278 253.998H225.937V225.946H282.278Z" fill="#DDDDDD"/>
<path d="M310.242 226.011C300.898 226.011 291.555 226.011 282.211 226.016V197.388H310.247C310.247 206.931 310.247 216.468 310.247 226.011H310.242Z" fill="#DDDDDD"/>
</svg>

<svg width="395" height="395" fill="none" xmlns="http://www.w3.org/2000/svg"><path d="M112.459 253.699v-27.907H84.781V84.609h27.868V56.39h28.333V28.035h28.205V0h141.167v27.884h28.226v28.36h28.182v28.225H395v141.267h-28.031v28.13h-28.21v28.355h-28.243v28.068H169.321v-28.057h-28.215v-28.556h-28.68l.028.023h.005Zm197.71-27.745h28.557v-28.578h27.924v-84.631h-27.958V84.48h-28.344V56.288h-28.199V28.175H197.38v28.242h-28.204v28.164h-28.238v28.337h-28.014v84.677h28.232v28.22h28.193v28.354h28.238v27.878h84.618v-28.13h27.97v-27.963h-.006Z" fill="#DDD"/><path d="M112.431 253.677v28.539h28.473v28.164h-28.059v28.326H84.68v28.22H56.314V395h-28.12v-27.951H0v-28.253h27.986v-28.248h28.3v-28.304h28.35V253.7h27.823l-.033-.023h.005ZM253.788 84.686v56.109h-56.072V84.686h56.072ZM338.793 197.461h-28.624v-56.294h28.624v56.294ZM282.278 225.946v28.052h-56.341v-28.052h56.341Z" fill="#DDD"/><path d="M310.242 226.011c-9.344 0-18.687 0-28.031.005v-28.628h28.036v28.623h-.005Z" fill="#DDD"/></svg>
